X: 6924
T: Cherish The Ladies
R: jig
M: 6/8
K: Dmajor
dFF AFF|DFA AGF|BEE GEE|GBA GFE|
dFF AFF|DFA AFA|Bcd efg|fdd d2 (3(A/B/c/):|
|:dfd cec|dfd AGF|BEE GEE|GBA GFE|
dfd cec|dfd AGF|Bcd efg|fdd d2A:|
|:dfd cec|dfd AGF|B zE G zE|GcB/A/ GFE|
dGd cFc|dGd A2G|(A3/2B/c/d/) efg|fdd d2B:|
|:Add fdd|add fdd|(A/B/c)d gfg|ece gfe|
agf bgf|afd cBA|(3(f/g/a/) dB AGF|GEF GFE:|
|:f2f afd|fed cde|g2g gfg|ece gfe|
agf bge|afd cBA|fdB AGF|GEF GFE:|
|:DFA dAF|DFA BGE|DFA dAF|GEF GFE|
DFA DGB|DFA d2e|fdB AGF|GEF GFE:|

